X:1
T:Title
%%score { 1 | ( 2 3 ) }
L:1/8
Q:1/4=100
M:4/4
K:Ab
V:1 treble nm="Grand Piano"
V:2 bass 
V:3 bass 
V:1
 [Ec][Ec][DB][Ec] [CA]2 [CE]2 | [DF][FA][Fd][Fd] [Ec]4 | ccAA GGFE | [EA]2 [Ec]2 [EB]4 | %4
w: B.~E.~Warren * * * * *||||
 [Ec][Ec][DB][Ec] [CA]2 [CE]2 | [DF][FA][Fd][Fd] [Ec]4 | cc[CA][CE] [DF][DG][EA][FB] | %7
w: |||
 [Ec]2 [DB]2 [CA]4 | cAdc c2 B2 | BAcB [DB]2 [CA]2 | AAAA [DFA][_CFA][=C=EG][CFA] | %11
w: ||||
 .[DFB]2 [EAc]2 [EGB]4 | cAdc c2 B2 | BAcB [DB]2 [CA]2 | [DF][FA][FA][DF] [CE]2 A2 | c2 B2 [CA]4 |] %16
w: |||||
V:2
 [A,,A,][A,,A,][A,,A,][A,,A,] [A,,A,]2 [A,,A,]2 | [D,A,][D,A,][D,A,][D,A,] [A,,A,]4 | %2
 [A,E][A,E][F,A,C][F,A,C] [E,B,D][E,B,D][D,B,D][C,A,] | [C,A,]2 [A,,A,]2 [E,G,]4 | %4
 [A,,A,][A,,A,][A,,A,][A,,A,] [A,,A,]2 [A,,A,]2 | [D,A,][D,A,][D,A,][D,A,] [A,,A,]4 | %6
 [A,E][A,E][A,,A,][A,,A,] [D,A,][B,,B,][C,A,][D,A,] | [E,A,]2 [E,G,]2 [A,,A,]4 | %8
 [A,E][A,C][A,F][K:bass][A,E] [E,A,E]2 [E,G,D]2 | [E,G,D][E,A,C][E,A,E][E,G,D] [A,,A,]2 [A,,A,]2 | %10
 [F,A,C][F,A,C][F,A,C][F,CF] D,D,C,C, | z =D A,,2 E,4 | %12
 [A,E][A,C][A,F][K:bass][A,E] [E,A,E]2 [E,G,D]2 | [E,G,D][E,A,C][E,A,E][E,G,D] [A,,A,]2 [A,,A,]2 | %14
 [D,A,][D,D][D,D][D,A,] [A,,A,]2 [F,A,C]2 | [E,A,E]2 [E,G,D]2 [A,,A,]4 |] %16
V:3
 x8 | x8 | x8 | x8 | x8 | x8 | x8 | x8 | x3[K:bass] x5 | x8 | x8 | B,,2 z2 z4 | x3[K:bass] x5 | %13
 x8 | x8 | x8 |] %16

